X: 27368
T: Mná Na hÉireann
R: barndance
M: 4/4
K: Gmajor
A {B}AB||"Am" cg3 {a}g a2{ga}g|"D" fA3-A2 AB|1 "C" c2-c/ {d}c/B/c/ "D" ~A2-|
A3 A AB:|2 "C" c2-c/ c/B/c/ "D" d3 c/A/|"G" B/d/G2-G G2||
"Em" {ga}g6 ab|"Am" {ab}a4- a ged|"C" {ef}e4- e "D"{fe}dcB|"Am"{cB}A2 g4 g2|
a2 {b}a3 g"D"fd|"Am" e4 A2 "D"(3A2G2{AG}F2|"G"{FA}G4- G3||

